X:144
T:Strike the Gay Harp
Z: id:dc-jig-171
M:6/8
L:1/8
K:D Major
A|d2B cBA|dAF FED|d2B cBA|dAF E3|!
def B3|AdA F2E|DED DEF|AFE E2:|!
A|d2d fdf|aba afe|def afa|bge edB|!
def a2a|bgb a2g|fed dfe|dAF E2:|!
A|def def|dAF DFA|def def|dAF E2A|!
def B3|AdA F2E|DED DEF|AFE E2:|!


